X: 3
T: The Connaught Heifers
R: reel
M: 4/4
L: 1/8
K: Dmaj
~F2FG ~A2BG|~A2BG AGFD|~F2FG AG~G2|DG~G2 =cAAG:|
fdec d2cA|~A2BG ABde|fdec d2cA|BG~G2 AGFD|
fdec d2cA|~A2BG ABde|~f2fd edcA|BG~G2 AGFD||


Tune 970	Setting 27820

